img/icons/group.svg

<svg width="19" height="16" viewBox="0 0 19 16" fill="none" xmlns="http://www.w3.org/2000/svg">
<path d="M18.4623 9.08026C18.05 7.59575 16.7536 6.54754 15.2636 6.43972C15.8372 5.75673 16.1862 4.8714 16.1862 3.90281C16.1862 1.75076 14.4734 0 12.3679 0C10.3907 0 8.76018 1.54402 8.56876 3.51427C8.00015 3.17029 7.33947 2.96918 6.63221 2.96918C4.52672 2.96918 2.81384 4.71995 2.81384 6.87199C2.81384 7.84059 3.16288 8.72591 3.73646 9.40891C2.24647 9.51672 0.950422 10.5649 0.537732 12.0494L0.0672696 13.7409C-0.0828145 14.2811 0.020886 14.8473 0.351866 15.2953C0.682846 15.743 1.18776 16 1.73708 16H11.5273C12.0763 16 12.5812 15.7433 12.9122 15.2953C13.2432 14.8476 13.3469 14.2811 13.1968 13.7409L12.9994 13.0308H17.263C17.812 13.0308 18.3166 12.7741 18.6479 12.3264C18.9789 11.8784 19.0829 11.3119 18.9328 10.7721L18.4623 9.08026ZM11.4213 12.4287L11.8914 14.1202C11.9362 14.2814 11.8719 14.402 11.8295 14.4592C11.7871 14.5168 11.6913 14.6129 11.5273 14.6129H1.73708C1.57308 14.6129 1.47733 14.5164 1.43459 14.4592C1.39218 14.4016 1.32791 14.2814 1.37264 14.1202L1.8431 12.4287C2.11378 11.4548 2.99441 10.7748 3.9847 10.7748H9.27938C10.2697 10.7748 11.1503 11.4548 11.4213 12.4287ZM12.3679 1.38706C13.7249 1.38706 14.8292 2.51575 14.8292 3.90281C14.8292 5.28987 13.7249 6.41856 12.3679 6.41856C11.0108 6.41856 9.90656 5.28987 9.90656 3.90281C9.90656 2.51575 11.0108 1.38706 12.3679 1.38706ZM9.09352 6.87199C9.09352 8.25906 7.98926 9.38774 6.63221 9.38774C5.27515 9.38774 4.17089 8.25906 4.17089 6.87199C4.17089 5.48493 5.27515 4.35625 6.63221 4.35625C7.98926 4.35625 9.09352 5.48493 9.09352 6.87199ZM12.5772 11.6438C12.0578 10.3774 10.8763 9.50665 9.52795 9.40891C9.91066 8.95318 10.1903 8.40675 10.3355 7.80562H15.0154C16.0057 7.80562 16.8863 8.48561 17.157 9.45953L17.6274 11.151C17.6722 11.3122 17.6076 11.4324 17.5651 11.49C17.5227 11.5476 17.427 11.6438 17.263 11.6438H12.5772Z" fill="white"/>
</svg>

<svg width="19" height="16" fill="none" xmlns="http://www.w3.org/2000/svg"><path d="M18.462 9.08a3.609 3.609 0 0 0-3.198-2.64 3.933 3.933 0 0 0 .922-2.537C16.186 1.75 14.473 0 12.368 0c-1.977 0-3.608 1.544-3.8 3.514a3.728 3.728 0 0 0-1.936-.545c-2.105 0-3.818 1.751-3.818 3.903 0 .969.349 1.854.922 2.537a3.61 3.61 0 0 0-3.198 2.64l-.47 1.692c-.15.54-.047 1.106.284 1.554A1.71 1.71 0 0 0 1.737 16h9.79a1.71 1.71 0 0 0 1.385-.705 1.791 1.791 0 0 0 .285-1.554l-.198-.71h4.264a1.71 1.71 0 0 0 1.385-.705 1.791 1.791 0 0 0 .285-1.554l-.47-1.692Zm-7.04 3.349.47 1.691a.386.386 0 0 1-.365.493h-9.79a.387.387 0 0 1-.364-.493l.47-1.691c.27-.974 1.151-1.654 2.142-1.654h5.294c.99 0 1.871.68 2.142 1.654Zm.946-11.042c1.357 0 2.461 1.129 2.461 2.516s-1.104 2.516-2.461 2.516c-1.357 0-2.461-1.13-2.461-2.516 0-1.387 1.104-2.516 2.46-2.516ZM9.094 6.872c0 1.387-1.105 2.516-2.462 2.516-1.357 0-2.461-1.129-2.461-2.516s1.104-2.516 2.461-2.516c1.357 0 2.462 1.129 2.462 2.516Zm3.483 4.772a3.594 3.594 0 0 0-3.049-2.235 3.922 3.922 0 0 0 .807-1.603h4.68c.99 0 1.871.68 2.142 1.654l.47 1.691a.386.386 0 0 1-.364.493h-4.686Z" fill="#fff"/></svg>
